X: 9
T:Aly Anderson
% Nottingham Music Database
S:Bob McQuillen March 1977, via PR
M:4/4
L:1/4
K:D
F/2G/2|"D"Ad "A7"A/2B/2A/2G/2|"D"FD2E/2F/2|"Em"G/2F/2E/2D/2 "A"EA|"D"D3F/2G/2|\
"D"Ad "A7"A/2B/2A/2G/2|
"D"FA df|"E7"e/2f/2e/2d/2 cd|"A"e3"A7"d/2e/2|"D"fg/2f/2 "A"ef/2e/2|\
"G"dB "D"AF/2A/2|
"G"Bc/2d/2 gf|"A"e3d/2e/2|"D"fe/2f/2 "A7"gf/2g/2|"D"a/2f/2d/2B/2 AF/2A/2|\
"G"Bc/2d/2 "A7"ec|"D"d3
|:A|"D"f/2e/2d/2e/2 fa|"Em"ge2A|"A7"e/2d/2c/2d/2 eg|"D"fd2A|
"G"Be/2d/2 "A"cf/2e/2|"Bm"dg/2f/2 "A7""c#"ef/2g/2|"D"a/2f/2d/2B/2 "A7"Ae|"D"d3\
:|<end>
<start>
